!!!!SEGMENT: pl-wtm--r-116-n--002_noskowski-zygmunt--causeries-op-32-mazurka.krn
!!!cenid: 18xx:2136
!!!COM: Noskowski, Zygmunt
!!!COM-rismid: pe106604
!!!CDT: 1846/05/02-1909/07/23
!!!CNT: Polish
!!!GTL: Causeries op. 32
!!!OTL: Mazurka
!!!PDT: 1850
!!!AGN: Secular; Mazurka
!!!SMS-siglum: PL-Wtm
!!!SMS-shelfmark: R 116/N
!!!SMS-shelfwork: 002 G
!!!SMS-variant:
!!!SMS-altvar:
!!!NIFC-rismid: 1001084169
!!!URL-scan: http://repozytorium.nifc.pl/skany/pl-wtm-nut--r116n
!!!ONB-nifc:
!!!OMD: Allegro
**kern	**fing	**kern	**fing	**dynam
*part1	*	*part1	*	*part1
*staff2	*	*staff1	*	*
*I"Piano	*	*I"Piano	*	*
*clefF4	*	*clefG2	*	*
*k[f#c#g#]	*	*k[f#c#g#]	*	*
*A:	*	*A:	*	*
*M3/4	*	*M3/4	*	*
=1	=1	=1	=1	=1
*>A	*	*>A	*>A	*>A
*ped	*	*	*	*
.	.	(8qe/	.	fp
4AA 4AAA/	.	4.ee^\)	.	.
4c# 4A 4E\	.	.	.	.
.	.	(8cc#\L	.	.
*Xped	*	*	*	*
4d 4G# 4E\	.	8b\	.	.
.	.	8dd\J	.	.
=2	=2	=2	=2	=2
4AA/	.	8cc#/L	.	.
.	.	8a/	.	.
4d 4E\	.	8f#/	.	.
.	.	8b/	.	.
4B 4E\	.	8d/	.	.
.	.	8g#/J)	.	.
=3	=3	=3	=3	=3
.	.	(16qqf#/LL	.	.
.	.	16qqg#/JJ	.	.
*ped	*	*	*	*
4AA/	.	(8f#/L)	.	.
.	.	8e/	.	.
4c# 4E\	.	8d#X/	.	.
.	.	8e/	.	.
4r	.	8a/	.	<
*Xped	*	*	*	*
.	.	8b/J	.	.
=4	=4	=4	=4	=4
4r	.	8cc#\L	.	.
.	.	8dd\	.	.
4r	.	8dd#X\	.	[
.	.	8ee\J)	.	.
8e 8A\	.	8aa: 8cc#: 8a^^:\	.	.
8r	.	8r	.	.
=5	=5	=5	=5	=5
!	!	!	!	!LO:DY:rj
4E 4EE/	.	8gg#\L	.	f
.	.	16r	.	.
.	.	(16aa\Jk	.	.
2f# 2d 2G#^^\	.	2ff# 2dd 2g#^^\)	.	.
!!LO:LB:g=original
=6	=6	=6	=6	=6
4EE 4EEE/	.	8ee\L	.	.
.	.	16r	.	.
.	.	(16ff#\Jk	.	.
2c# 2A 2E^^\	.	2cc# 2a 2e^^/)	.	.
=7	=7	=7	=7	=7
!	!	!	!	!LO:DY:rj
4E 4EE/	.	(8f#/L	.	p
.	.	8g#/J)	.	.
.	.	(16qqa/LL	.	.
.	.	16qqb/JJ	.	.
4d 4A 4F#\	.	(8a^/L)	.	.
.	.	8g#/	.	.
!LO:TX:t=P:problem:nadpisana pauza 4r	!	!	!	!
4E\	.	8a/	.	.
.	.	8cc#/J)	.	.
=8	=8	=8	=8	=8
4d 4A#X 4F##X\	.	8.a#X/L	.	.
.	.	(16b/Jk	.	.
4d 4B 4G#\	.	4.e/)	.	.
!LO:TX:t=P:problem:nadpisana pauza 4r	!	!	!	!
4E\	.	.	.	.
.	.	(<48f#/LLL	.	<
.	.	48g#/	.	.
.	.	48an/	.	.
.	.	48b/	.	.
.	.	48cc#/	.	.
.	.	48dd/JJJ	.	[[
=9	=9	=9	=9	=9
*ped	*	*	*	*
4AA 4AAA/	.	4.ee^\)	.	fp
4c# 4A 4E\	.	.	.	.
*Xped	*	*	*	*
.	.	(8cc#\L	.	.
4d 4G# 4E\	.	8b\	.	.
.	.	8dd\J	.	.
=10	=10	=10	=10	=10
4AA/	.	8cc#/L	.	.
.	.	8a/	.	.
4d 4E\	.	8f#/	.	.
.	.	8b/	.	.
4B 4E\	.	8d/	.	.
.	.	8g#/J)	.	.
!!LO:PB:g=original
=11	=11	=11	=11	=11
.	.	(16qqf#/LL	.	.
.	.	16qqg#/JJ	.	.
4AA/	.	(8f#/L)	.	.
.	.	8e/	.	.
4c# 4E\	.	8a/	.	.
.	.	8b/	.	<
4r	.	8cc#/	.	.
.	.	8dd/J	.	.
=12	=12	=12	=12	=12
4r	.	8dd#X\L	.	.
.	.	8ee\	.	.
4r	.	8aa\)	.	[
.	.	8bb\J	.	.
8a 8e 8A^^\	.	8ccc# 8ee^^\	.	.
8r	.	8r	.	.
=13	=13	=13	=13	=13
!	!	!	!	!LO:DY:rj
4F# 4FF#/	.	8ddd#X\L	.	f
.	.	16r	.	.
.	.	(16eee\Jk	.	.
2a 2e 2c#^^\	.	2ccc# 2aa 2ee^^\)	.	.
=14	=14	=14	=14	=14
4BB 4BBB/	.	8bb\L	.	.
.	.	16r	.	.
.	.	(16ccc#\Jk	.	.
2e: 2G#: 2BB^^:\	.	2gg# 2ee 2b^^\)	.	.
=15	=15	=15	=15	=15
!	!	!LO:TX:b:i:t=sost	!	!
4BB 4BBB/	.	8.bb\L	.	.
.	.	(16aa\Jk	.	.
4e 4c# 4A\	.	8ccc#\L	.	.
.	.	8cc#\J	.	.
4d#X 4A 4F#\	.	8dd#X\L	.	.
.	.	8aa\J)	.	.
!!LO:LB:g=original
=16	=16	=16	=16	=16
!LO:TX:a:t=1a	!	!	!	!
*>A1	*	*>A1	*>A1	*>A1
.	.	(8qgg#/	.	.
4E 4EE/	.	4ee\)	.	.
4g# 4B 4E^^\	.	4eee 4bb 4ee^^\	.	.
4r	.	4r	.	.
=17:|!	=17:|!	=17:|!	=17:|!	=17:|!
!LO:TX:a:t=2a	!	!	!	!
*>A2	*	*>A2	*>A2	*>A2
.	.	(8qgg#/	.	.
4E 4EE/	.	4ee\)	.	.
*>B	*	*>B	*>B	*>B
8g# 8B 8E^^\	.	8eee 8bb 8ee^^\	.	.
8r	.	8r	.	.
!	!	!LO:TX:a:t=Poco più tranquillo	!	!
4r	.	(8ee\L	.	p
.	.	8ee#X\J	.	.
=18	=18	=18	=18	=18
4BB'/	.	8ff#\L	.	.
.	.	8aa\J)	.	.
4d 4G# 4E'\	.	(4.gg#^\	.	.
4EE'/	.	.	.	.
.	.	8bb\)	.	.
=19	=19	=19	=19	=19
4C#'/	.	(8.ee\L	.	.
.	.	16aa\Jk)	.	.
4c# 4A 4E'\	.	4aa\	.	.
4AA'/	.	4ccc# 4cc#\	.	.
=20	=20	=20	=20	=20
4BB'/	.	8ccc#L 8cc#\	.	<
.	.	8eeeJ 8ee\	.	.
4d 4A 4F#'\	.	4.ddd 4.dd\	.	.
4d 4G# 4E'\	.	.	.	.
.	.	8fff# 8ff#\	.	.
!!LO:LB:g=original
=21	=21	=21	=21	=21
4AA 4AAA/	.	8.aaaL 8.aa\	.	.
.	.	16ggg#Jk 16gg#\	.	.
4c# 4E 4AA\	.	4eee 4ee\	.	.
4r	.	4eee 4ee\	.	.
=22	=22	=22	=22	=22
8r	.	4fff# 4ddd 4ff#^^\	.	f
8GG#L 8GGG#/	.	.	.	.
8AA 8AAA/	.	2eee 2ccc# 2ee^^\	.	sfz
8BB 8BBB/	.	.	.	.
8C# 8CC#/	.	.	.	.
8DJ 8DD/	.	.	.	.
=23	=23	=23	=23	=23
!	!	!LO:TX:b:i:t=poco sost.	!	!
4E 4EE/	.	8dddL 8bb 8dd\	.	.
.	.	8eeeJ 8ccc# 8ee\	.	.
4r	.	4fff# 4ddd 4ff#\	.	.
4r	.	4ggg# 4eee 4gg#\	.	.
=24	=24	=24	=24	=24
4C# 4CC#/	.	8fff#L 8ff#\	.	.
.	.	8eee 8ee\	.	.
4c# 4A\	.	8ddd 8dd\	.	.
.	.	8ccc# 8cc#\	.	.
4D#X 4DD#X/	.	8bb 8b\	.	.
.	.	8aaJ 8a\	.	.
=25	=25	=25	=25	=25
4E 4EE/	.	8gg#L 8g#\	.	.
.	.	8aaJ 8a\	.	.
4e 4B 4G#\	.	4bb 4b\	.	.
!	!	!	!	!LO:DY:rj
4r	.	(8ee\L	.	p
.	.	8ee#X\J	.	.
!!LO:LB:g=original
=26	=26	=26	=26	=26
4BB/	.	8ff#\L	.	.
.	.	8aa\J)	.	.
4d 4G# 4E\	.	(4.gg#^\	.	.
4EE/	.	.	.	.
.	.	8bb\)	.	.
=27	=27	=27	=27	=27
4C#/	.	(8.ee\L	.	.
.	.	16aa\Jk)	.	.
4c# 4A 4E\	.	4aa\	.	.
4AA/	.	4ccc# 4cc#\	.	.
=28	=28	=28	=28	=28
!	!	!	!	!LO:HP:t=crescendo
4BB/	.	8ccc#L 8cc#\	.	<
.	.	8eeeJ 8ee\	.	.
4d 4A 4F#\	.	4.ddd 4.dd\	.	.
4d 4G# 4E\	.	.	.	.
.	.	8fff# 8ff#\	.	.
=29	=29	=29	=29	=29
4AA 4AAA/	.	8.aaaL 8.aa\	.	.
.	.	16ggg#Jk 16gg#\	.	.
4c# 4E 4AA\	.	4eee 4ee\	.	.
4r	.	8eeeL 8ee\	.	.
.	.	8fff#J 8ff#\	.	.
=30	=30	=30	=30	=30
*	*	*8va	*	*
!	!	!	!	!LO:DY:rj
4GG# 4GGG#/	.	4ggg# 4eee 4bb^\	.	f
8r	.	2fff# 2ddd#X 2ff#^\	.	sfz
8GG#L 8GGG#/	.	.	.	.
8AA#X 8AAA#X/	.	.	.	.
8BB#XJ 8BBB#X/	.	.	.	.
!!LO:LB:g=original
=31	=31	=31	=31	=31
4C# 4CC#/	.	8eeeL 8ccc# 8ee\	.	.
.	.	8fff#J 8ddd#X 8ff#\	.	.
4r	.	4ggg# 4eee 4gg#\	.	.
4D#X 4DD#X^/	.	4aaa 4fff# 4aa^\	.	.
=32	=32	=32	=32	=32
4GG# 4GGG#/	.	8ggg#L 8gg#\	.	.
.	.	8aaa#X 8aa#X\	.	.
4B#X 4F# 4D#X\	.	8bbb#X 8bb#X\	.	.
.	.	8cccc# 8ccc#\	.	.
!LO:TX:t=P:problem:wykreślone ołówkiem	!	!	!	!
4GG# 4GGG#/	.	8dddd#X 8ddd#X\	.	.
.	.	8eeeeJ 8eee\	.	.
=33	=33	=33	=33	=33
4C# 4CC#/	.	8.dddd#XL 8.ddd#X\	.	.
.	.	16cccc#Jk 16ccc#\	.	.
4e 4G# 4C#^^\	.	4cccc# 4ccc#^^\	.	.
*	*	*X8va	*	*
4r	.	8r	.	.
!	!	!LO:TX:a:i:t=grazioso.	!	!
.	.	8cc#\	.	p
=34	=34	=34	=34	=34
4C#/	.	(4.ccc#\	.	.
4f# 4c# 4A\	.	.	.	.
.	.	8aa\L	.	.
4C#/	.	8gg#\	.	.
.	.	8bb\J	.	.
=35	=35	=35	=35	=35
4f# 4B#X 4G#\	.	8aa\L	.	.
.	.	8ff#\	.	.
4C#/	.	8dd#X\	.	.
.	.	8gg#\	.	.
4e 4c# 4G#\	.	8cc#\	.	.
.	.	8ee\J)	.	.
!!LO:PB:g=original
=36	=36	=36	=36	=36
.	.	(16qqdd#X/LL	.	.
.	.	16qqee/JJ	.	.
4C#/	.	8dd#\L)	.	.
.	.	16r	.	.
.	.	(16cc#\Jk	.	.
4f# 4B#X 4G#\	.	16b#X\LL	.	.
.	.	16cc#\	.	.
.	.	16dd#\	.	.
!	!	!LO:TX:b:t=legg.	!	!
.	.	16ee\JJ	.	.
4r	.	16ff#\LL	.	.
.	.	16gg#\	.	.
.	.	16aa#X\	.	<
.	.	16bb#X\JJ	.	.
=37	=37	=37	=37	=37
4C#/	.	16ccc#\LL	.	.
.	.	16ddd#X\	.	.
.	.	16eee\	.	.
.	.	16fff#\JJ	.	.
4e 4c# 4G#\	.	16ggg#\LL	.	[
.	.	16aaan\	.	>
.	.	16ggg#\	.	.
.	.	16aaa\JJ	.	.
4r	.	8ggg#\)	.	]
.	.	8r	.	.
=38||	=38||	=38||	=38||	=38||
*k[]	*	*k[]	*	*
!	!	!	!	!LO:DY:rj
4E-X\	.	(4.eee-X\	.	p
4g 4d-X 4B-X\	.	.	.	.
.	.	8ccc\L	.	.
4r	.	8bb-X\	.	.
.	.	8ddd-X\J	.	.
=39	=39	=39	=39	=39
4AA-X/	.	8ccc\L	.	.
.	.	8aa-X\	.	.
4d-X 4A-X 4F\	.	8ff\	.	.
.	.	8bb-X\	.	.
4d- 4G 4E-X\	.	8dd-X\	.	.
.	.	8gg\J)	.	.
!!LO:LB:g=original
=40	=40	=40	=40	=40
.	.	(16qqff/LL	.	.
.	.	16qqgg/JJ	.	.
4AA-X/	.	8ff\L)	.	.
.	.	16r	.	.
.	.	16ee-X\Jk	.	.
4c 4A-X 4E-X\	.	(16ddn\LL	.	.
.	.	16ee-\	.	.
.	.	16ff\	.	.
.	.	16gg\JJ	.	.
!LO:TX:t=P:problem:akord skreślony ołówkiem, dopisana pauza 4r	!	!	!	!
4e-X 4c 4A-\	.	16aa-X\LL	.	.
.	.	16bb-X\	.	.
.	.	16ccc\	.	.
.	.	16ddd-X\JJ	.	.
=41	=41	=41	=41	=41
!LO:TX:t=P:problem:akord skreślony ołówkiem, dopisana pauza całotaktowa	!	!	!	!
*	*	*8va	*	*
4a-X 4e-X 4c\	.	16eee-X\LL	.	.
.	.	16fff\	.	.
.	.	16ggg\	.	.
.	.	16aaa-X\JJ	.	.
4r	.	16bbb-X\LL	.	.
.	.	16cccc\	.	.
.	.	16dddd-X\	.	.
.	.	16ddddn\JJ	.	.
4r	.	16eeee-X\LL	.	.
.	.	16dddd\	.	.
.	.	16eeee-\	.	.
.	.	16dddd\JJ	.	.
=42||	=42||	=42||	=42||	=42||
!	!	!LO:TX:a:t=Tempo Iº	!	!LO:HP:t=crescendo poco à poco.
4F#X\	.	16eeee-X\LL	.	<
.	.	16dddd\	.	.
.	.	16eeee-\	.	.
.	.	16dddd\JJ	.	.
4e-X 4c 4A-X^^\	.	16eeee-\LL	.	.
.	.	16dddd\	.	.
.	.	16eeee-\	.	.
.	.	16dddd\JJ	.	.
4r	.	16eeee-\LL	.	.
.	.	16dddd\	.	.
.	.	16eeee-\	.	.
.	.	16dddd\JJ	.	.
!!LO:LB:g=original
=43	=43	=43	=43	=43
4G\	.	16eeee-X\LL	.	.
.	.	16dddd\	.	.
.	.	16eeee-\	.	.
.	.	16dddd\JJ	.	.
4e-X 4c^^\	.	16eeee-\LL	.	.
.	.	16dddd\	.	.
.	.	16eeee-\	.	.
.	.	16dddd\JJ	.	.
4r	.	16eeee-\LL	.	.
.	.	16dddd\	.	.
.	.	16eeee-\	.	.
.	.	16dddd\JJ	.	.
=44	=44	=44	=44	=44
4A-X\	.	16eeee-X\LL	.	.
.	.	16dddd\	.	.
.	.	16eeee-\	.	.
.	.	16dddd\JJ	.	.
4e-X 4c^^\	.	16eeee-\LL	.	.
.	.	16dddd\	.	.
.	.	16eeee-\	.	.
.	.	16dddd\JJ	.	.
4r	.	16eeee-\LL	.	.
.	.	16dddd\	.	.
.	.	16eeee-\	.	.
.	.	16dddd\JJ	.	.
=45	=45	=45	=45	=45
4C/	.	16eeee-X\LL	.	.
.	.	16dddd\	.	.
.	.	16eeee-\	.	.
.	.	16dddd\JJ	.	.
4e-X 4c 4G^^\	.	16eeee-\LL	.	.
.	.	16dddd\	.	.
.	.	16eeee-\	.	.
.	.	16dddd\JJ	.	.
4r	.	16eeee-\LL	.	.
.	.	16dddd\	.	.
.	.	16eeee-\	.	.
.	.	16dddd\JJ	.	.
!!LO:LB:g=original
=46	=46	=46	=46	=46
*ped	*	*	*	*
4BBn/	.	16dddd#X^\LL	.	f
.	.	16ddddn\	1	.
.	.	16dddd#X\	2	.
.	.	16eeee\JJ	1	.
4en 4d 4G#X^^\	.	16gggg#X\LL	4	.
.	.	16ffff#X\	.	.
.	.	16ddddn\	.	.
.	.	16bbb\JJ	.	.
4r	.	16eeee\LL	4	.
.	.	16dddd\	.	.
.	.	16bbb\	.	.
.	.	16ggg#X\JJ	.	.
=47||	=47||	=47||	=47||	=47||
*k[f#c#g#]	*	*k[f#c#g#]	*	*
2.r	.	16cccc#\LL	4	.
.	.	16bbb\	.	.
.	.	16ggg#\	.	.
.	.	16eee\JJ	.	.
.	.	16ggg#\LL	4	.
.	.	16fff#\	.	.
.	.	16ddd\	.	.
.	.	16bb\JJ	.	.
*	*	*X8va	*	*
.	.	16eee\LL	4	.
.	.	16ddd\	.	.
.	.	16bb\	.	.
.	.	16gg#\JJ	.	.
=48	=48	=48	=48	=48
2.E 2.EE^/	.	16ccc#\LL	3	.
.	.	16bb\	.	.
.	.	16ddd\	.	.
.	.	16ccc#\JJ	.	.
.	.	16bb\LL	.	.
.	.	16ccc#\	.	.
.	.	16bb\	.	.
.	.	16aa\JJ	.	.
.	.	16gg#\LL	3	.
.	.	16aa\	.	.
.	.	16gg#\	.	.
.	.	16ff#\JJ	.	.
!!LO:LB:g=original
=49	=49	=49	=49	=49
!	!	!	!	!LO:DY:b=2:t=fz
4g# 4d 4B 4E\	.	16ee\LL	1	sfz
.	.	16ff#\	3	.
.	.	16ee\	.	.
.	.	16dd\JJ	.	.
4r	.	16cc#/LL	.	.
.	.	16b/	.	.
.	.	16a/	.	.
.	.	16g#/JJ	.	.
4r	.	16f#/LL	.	.
.	.	16e/	.	.
.	.	16d/	.	.
.	.	16c#/JJ	.	.
=50	=50	=50	=50	=50
2.rGG	.	16B</LL	.	.
.	.	16A</	.	.
.	.	16G#</	.	.
.	.	16F#</JJ	.	.
.	.	16E</LL	.	.
.	.	16D#X</	.	.
.	.	16E</	.	.
.	.	16F#</JJ	.	.
.	.	16G#</LL	.	.
.	.	16A</	.	.
.	.	16B</	.	.
.	.	16c#</JJ	.	<
=51	=51	=51	=51	=51
2.r	.	16dn/LL	.	.
.	.	16c#/	.	.
.	.	16B/	.	.
.	.	16c#/JJ	.	.
.	.	16d/LL	.	.
.	.	16e/	.	.
.	.	16f#/	.	.
.	.	16g#/JJ	.	.
.	.	16a\LL	.	.
.	.	16b\	.	[
.	.	16cc#\	.	.
.	.	16dd\JJ	.	.
=52	=52	=52	=52	=52
4AA 4AAA/	.	4.ee^\)	.	ff
4c# 4A 4E\	.	.	.	.
.	.	(8cc#\L	.	.
4d 4G# 4E\	.	8b\	.	.
.	.	8dd\J	.	.
=53	=53	=53	=53	=53
4AA/	.	8cc#/L	.	.
.	.	8a/	.	.
4d 4E\	.	8f#/	.	.
.	.	8b/	.	.
4B 4E\	.	8d/	.	.
.	.	8g#/J)	.	.
!!LO:PB:g=original
=54	=54	=54	=54	=54
.	.	(16qqf#/LL	.	.
.	.	16qqg#/JJ	.	.
*ped	*	*	*	*
4AA/	.	(8f#/L)	.	.
.	.	8e/	.	.
4c# 4E\	.	8d#X/	.	.
.	.	8e/	.	.
*Xped	*	*	*	*
4r	.	8a/	.	.
.	.	8b/J	.	<
=55	=55	=55	=55	=55
4r	.	8cc#\L	.	.
.	.	8dd\	.	.
4r	.	8dd#X\	.	.
.	.	8ee\J)	.	[
8e 8A\	.	8aa: 8cc#: 8a^:\	.	.
8r	.	8r	.	.
=56	=56	=56	=56	=56
4E 4EE/	.	8gg#\L	.	f
.	.	16r	.	.
.	.	(16aa\Jk	.	.
2f# 2d 2G#^^\	.	2ff# 2dd 2g#^^\)	.	.
=57	=57	=57	=57	=57
*ped	*	*	*	*
4EE 4EEE/	.	8ee\L	.	.
.	.	16r	.	.
*Xped	*	*	*	*
.	.	(16ff#\Jk	.	.
2c# 2A 2E^^\	.	2cc# 2a 2e^^/)	.	.
=58	=58	=58	=58	=58
4E 4EE/	.	(8f#/L	.	p
.	.	8g#/J)	.	.
.	.	(16qqa/LL	.	.
.	.	16qqb/JJ	.	.
4d 4A 4F#\	.	(8a/L)	.	.
.	.	8g#/	.	.
4r	.	8a/	.	.
.	.	8cc#/J)	.	.
!!LO:LB:g=original
=59	=59	=59	=59	=59
4E\	.	(8.a#X/L	.	.
.	.	16b/Jk	.	.
4B 4G#\	.	4.e/)	.	.
4D\	.	.	.	.
!	!	!LO:TUP:a	!	!
.	.	(72f#\LLLL	.	.
.	.	72g#\	.	<
.	.	72an\	.	.
.	.	72b\	.	.
.	.	72cc#\	.	.
.	.	72dd\	.	.
.	.	72ee\	.	.
.	.	72ff#\	.	.
.	.	72gg#\JJJJ	.	[[
=60	=60	=60	=60	=60
*ped	*	*	*	*
4C#/	.	4.aa\)	.	f
4e 4A 4Gn\	.	.	.	.
.	.	(8ff#\L	.	.
4AA/	.	8ee\	.	.
*Xped	*	*	*	*
.	.	8ggn\J	.	.
=61	=61	=61	=61	=61
4D 4DD/	.	8ff#\L	.	.
.	.	8dd\	.	.
4B 4Gn 4E\	.	8b\	.	.
.	.	8ee\	.	.
4c# 4G 4E\	.	8gn\	.	.
.	.	8cc#\J)	.	.
=62	=62	=62	=62	=62
.	.	(16qqb/LL	.	.
.	.	16qqcc#/JJ	.	.
*ped	*	*	*	*
4D 4DD/	.	(8b\L)	.	.
.	.	8a\	.	.
4f# 4A 4D\	.	8dd\	.	.
.	.	8ee\	.	.
*Xped	*	*	*	*
4r	.	8ff#\	.	.
.	.	8aa\J	.	<
=63	=63	=63	=63	=63
4r	.	8gg#X\L	.	.
.	.	8aa\	.	.
4r	.	8ddd\	.	.
.	.	8eee\J)	.	[
*clefG2	*	*	*	*
8dd 8a 8d^^/	.	8fff# 8aa^^\	.	.
!LO:TX:a:t=P:problem:wykreślony niebieskim atramentem klucz F4	!	!	!	!
8r	.	8r	.	.
!!LO:LB:g=original
=64	=64	=64	=64	=64
*ped	*	*	*	*
4B/	.	8ggg#\L	.	pp
.	.	16r	.	.
.	.	(16aaa\Jk	.	.
*Xped	*	*	*	*
2ff# 2dd 2a^^\	.	2fff# 2ddd 2aa^^\)	.	.
=65	=65	=65	=65	=65
*ped	*	*	*	*
4E/	.	8eee\L	.	.
.	.	16r	.	.
.	.	(16fff#\Jk	.	.
*Xped	*	*	*	*
2cc# 2a 2e^^/	.	2ccc# 2aa 2ee^^\)	.	.
*clefF4	*	*	*	*
=66	=66	=66	=66	=66
*ped	*	*	*	*
4E 4EE/	.	(8.eee\L	.	f
!	!	!LO:TX:b:t=riten	!	!
.	.	16ddd\Jk	.	.
4f# 4d 4A\	.	8fff#\L)	.	.
.	.	(8ff#\	.	.
4g# 4d 4B\	.	8gg#\	.	.
.	.	8ddd\J)	.	.
=67	=67	=67	=67	=67
.	.	(8qccc#/	.	.
4A 4AA/	.	4aa\)	.	.
*clefG2	*	*	*	*
4cc# 4e 4A/	.	4aaa 4eee 4aa\	.	sfz
!LO:TX:t=P:problem:zmiana klucza dopisana niebieskim atramantem	!	!	!	!
4r;	.	4r;	.	.
*clefF4	*	*	*	*
=68!|:	=68!|:	=68!|:	=68!|:	=68!|:
*k[fncngnb-]	*	*k[fncngnb-]	*	*
!LO:TX:a:t=P:problem:kasownik fn oktawę wyżej	!	!LO:TX:a:t=P:problem:kasownik fn oktawę wyżej	!	!
!	!	!LO:TX:a:i:t=Poco più tranquillo	!	!LO:DY:rj
4C 4FF/	.	(8.aL 8.f 8.A/	.	p
.	.	16b-Jk 16B-/)	.	.
4D-X 4FF/	.	2b- 2f 2B-/	.	.
4D- 4FF/	.	.	.	.
!!LO:LB:g=original
=69	=69	=69	=69	=69
4Dn 4FF/	.	(8.bnL 8.f 8.Bn/	.	.
.	.	16ffJk 16f/)	.	.
4D 4FF/	.	2ff 2b 2f\	.	.
4G 4FF/	.	.	.	.
=70	=70	=70	=70	=70
4C 4FF/	.	(8.eeL 8.b-X 8.e\	.	.
.	.	16ffJk 16f\	.	<
4e 4B- 4G\	.	4ff#X 4b- 4f#X\	.	.
4d 4B- 4F\	.	4gg 4b- 4g\)	.	[[
=71	=71	=71	=71	=71
4c 4B- 4E\	.	(8.aaL 8.cc 8.a\	.	>
.	.	16gg\Jk	.	.
4r	.	2b- 2g/)	.	]]
4C 4FF/	.	.	.	.
=72	=72	=72	=72	=72
4C 4FF/	.	(8.bnL 8.g#X 8.Bn/	.	.
.	.	16ccJk 16a 16c/)	.	.
4F 4FF/	.	2cc 2a 2c/	.	.
4D 4FF/	.	.	.	.
=73	=73	=73	=73	=73
4C 4FF/	.	(8.eeL 8.b-X 8.e\	.	.
.	.	16bb-Jk 16b-\)	.	.
4G 4FF/	.	2bb- 2ee 2b-\	.	.
4C 4FF/	.	.	.	.
!!LO:LB:g=original
=74	=74	=74	=74	=74
4C 4FF/	.	(8.gg#XL 8.ff 8.g#X\	.	<
.	.	16aaJk 16a\	.	.
4E 4FF/	.	4bb- 4ggn 4b-\	.	.
4D 4FF/	.	4bbn 4ff 4bn\)	.	[
=75	=75	=75	=75	=75
*ped	*	*	*	*
4C 4FF/	.	(8.dddL 8.aa 8.dd\	.	>
.	.	16cccJk 16cc\	.	.
*Xped	*	*	*	*
4F 4FF/	.	2ff 2a 2f/)	.	]
4E 4EE/	.	.	.	.
=76	=76	=76	=76	=76
*ped	*	*	*	*
4D 4DD/	.	(8.aaL 8.ff 8.a\	.	<
.	.	16fffJk 16ff\)	.	.
4d 4A 4F\	.	2fff 2ff\	.	[
4D 4DD/	.	.	.	.
*Xped	*	*	*	*
=77	=77	=77	=77	=77
*ped	*	*	*	*
4BB- 4BBB-/	.	(8.fffL 8.ff\	.	.
.	.	16eeeJk 16ee\	.	.
4e 4d 4G\	.	2gg 2g\)	.	.
*Xped	*	*	*	*
4e 4d 4G\	.	.	.	.
=78	=78	=78	=78	=78
*ped	*	*	*	*
4AA 4AAA/	.	(8.ggL 8.g\	.	.
.	.	16bb-Jk 16b-\)	.	.
4e 4c#X 4G\	.	(4.bb- 4.b-\	.	.
4e 4c# 4G\	.	.	.	.
*Xped	*	*	*	*
.	.	8aa 8a\)	.	.
!!LO:PB:g=original
=79	=79	=79	=79	=79
4D 4DD/	.	(8ggL 8g\	.	.
.	.	8eeJ 8e\	.	.
4d 4A 4F\	.	4ff 4f\	.	.
4r	.	4gg 4g\)	.	<
=80	=80	=80	=80	=80
*ped	*	*	*	*
2D 2DD/	.	(8.aaL 8.ff 8.a\	.	.
.	.	16bbnJk 16bn\)	.	.
.	.	(4.bb 4.ff 4.b\	.	[
*Xped	*	*	*	*
4f 4d 4A\	.	.	.	.
.	.	8aa 8a\)	.	.
=81	=81	=81	=81	=81
*ped	*	*	*	*
4E 4EE/	.	8gg:L 8cc: 8g:\	.	.
.	.	16r	.	.
.	.	16ccc'\Jk	.	.
4e 4c 4G\	.	(12ccc\L	.	.
.	.	12ddd\	.	.
*Xped	*	*	*	*
.	.	12ccc\J	.	.
4r	.	8bbn\L	.	.
.	.	8ccc\J)	.	.
=82	=82	=82	=82	=82
!	!	!LO:TX:a:i:t=poco rall	!	!LO:DY:rj
4e 4c 4A 4F#X\	.	(8eee\L	.	p
.	.	8ddd\	.	.
*ped	*	*	*	*
4GG/	.	8bbn\	.	.
.	.	8aa\	.	>
*Xped	*	*	*	*
4d 4B- 4Fn\	.	8gg\	.	.
.	.	8dd\J)	.	.
=83	=83	=83	=83	=83
*ped	*	*	*	*
4CC/	.	(8.ee\L	.	.
.	.	16ff\Jk	.	]]
4e 4G 4C\	.	4gg\	.	.
*Xped	*	*	*	*
4r	.	4cc\)	.	.
!!LO:LB:g=original
=84:|!	=84:|!	=84:|!	=84:|!	=84:|!
!	!	!	!	!LO:DY:rj
4E-X 4AA-X/	.	(8.ccL 8.a-X 8.c/	.	pp
.	.	16dd-XJk 16d-X/)	.	.
4F 4AA-/	.	2dd- 2a- 2d-/	.	.
4F 4AA-/	.	.	.	.
=85	=85	=85	=85	=85
4G 4E-X 4AA-X/	.	(8.b-L 8.d-X/	1 5	.
.	.	16g/Jk	4	.
4r	.	8f/L	.	.
.	.	24e-X/L	.	.
.	.	24f/	.	.
.	.	24e-/JJ	.	.
4B- 4G\	.	8dn/L)	1	.
.	.	8e-/J	2	.
=86	=86	=86	=86	=86
*ped	*	*	*	*
4C/	.	(8g\L	3	.
.	.	8a-X\	4	.
*Xped	*	*	*	*
4e-X 4A-X\	.	8cc\	1	.
.	.	8ee-X\	2	.
*ped	*	*	*	*
4AA-X/	.	8gg\	3	.
.	.	8bb-\J	5	.
=87	=87	=87	=87	=87
4d-X 4F\	.	8.aa-X\L	.	.
*Xped	*	*	*	*
.	.	16ff\Jk	.	<
*ped	*	*	*	*
(8AA-X\L	.	2ee-X 2cc\)	.	.
8E-X\	.	.	.	.
8A-X\	.	.	.	.
*Xped	*	*	*	*
8c\J)	.	.	.	[
=88||	=88||	=88||	=88||	=88||
*k[bn]	*	*k[bn]	*	*
!	!	!	!	!LO:DY:rj
4F#X 4BB\	.	(8.dd#XL 8.b 8.d#X/	.	mp
.	.	16eeJk 16e/)	.	.
4G#X 4BB\	.	2ee 2b 2e/	.	.
4G# 4BB\	.	.	.	.
!!LO:LB:g=original
=89	=89	=89	=89	=89
4A#X 4F#X 4BB\	.	(8.cc#XL 8.e/	.	.
.	.	16a#X/Jk	.	.
4r	.	8g#X/L	.	.
.	.	24f#X/L	.	.
.	.	24g#/	.	.
.	.	24f#/JJ	.	.
4c#X 4F#\	.	8e#X/L	.	.
.	.	8f#/J)	.	.
=90	=90	=90	=90	=90
4BB/	.	(8a#X\L	.	<
.	.	8b\	.	.
4d#X 4F#X\	.	8dd#X\	.	.
.	.	8ff#X\	.	.
4BB/	.	8aa#X\	.	[
.	.	8gg#X\J	.	.
=91	=91	=91	=91	=91
4e 4F#X\	.	8.ff#X\L	.	.
.	.	16cc#X\Jk	.	.
4BB/	.	8ee\)	.	.
.	.	8r	.	.
4r	.	(12a#X/L	.	mf
.	.	12b/	.	.
.	.	12cc#/J	.	.
=92	=92	=92	=92	=92
*ped	*	*	*	*
4f#X 4An\	.	8.dd#X\L	.	.
.	.	16ff#X\Jk	.	.
4BB/	.	2bb\)	.	.
*Xped	*	*	*	*
4f# 4A\	.	.	.	.
=93	=93	=93	=93	=93
*ped	*	*	*	*
4E\	.	(8.aa#X\L	.	.
.	.	16ggn\Jk	.	.
4e 4G\	.	12ee\L	.	.
.	.	12ff#X\	.	.
.	.	12gg\J	.	.
*Xped	*	*	*	*
4g 4B\	.	8ff#\L	.	.
.	.	8ee\J)	.	.
!!LO:LB:g=original
=94	=94	=94	=94	=94
!LO:TX:b:i:t=Ped simili.	!	!	!	!
4BB/	.	(8.dd#X\L	.	.
.	.	16ff#X\Jk	.	.
4d#X 4F#X\	.	2bb\)	.	.
4f#X 4A\	.	.	.	.
=95	=95	=95	=95	=95
4E\	.	(8.aa#X\L	.	.
.	.	16gg\Jk	.	.
4e 4G\	.	12ee\L	.	.
.	.	12ff#X\	.	.
.	.	12gg\J	.	.
4g 4A#X\	.	8ff#\L)	.	.
.	.	8ee\J	.	.
=96	=96	=96	=96	=96
4BB/	.	(8.dd#X\L	.	<
.	.	16ff#X\Jk	.	.
4d#X 4F#X\	.	4bb\)	.	.
4E\	.	(8.ee\L	.	.
.	.	16gg\Jk	.	[
=97	=97	=97	=97	=97
4g 4B\	.	4bb\)	.	.
4E\	.	(8.ee\L	.	.
.	.	16gg\Jk	.	.
4g 4B\	.	4bb\)	.	.
=98	=98	=98	=98	=98
4E\	.	(8.aa#X\L	.	.
.	.	16gg\Jk	.	.
4g 4c\	.	12ee\L	.	.
.	.	12ff#X\	.	.
.	.	12gg\J	.	.
4r	.	8ff#\L	.	.
.	.	8ee\J)	.	.
!!LO:LB:g=original
=99	=99	=99	=99	=99
4E\	.	(8.aa#X\L	.	.
.	.	16gg\Jk	.	.
4g 4c\	.	12ee\L	.	.
.	.	12ff#X\	.	.
.	.	12gg\J	.	.
4r	.	8ff#\L	.	.
.	.	8ee\J)	.	.
=100||	=100||	=100||	=100||	=100||
*k[b-]	*	*k[b-]	*	*
4C 4CC/	.	(8.bb-X\L	.	f
.	.	16gg\Jk	.	.
4e 4B- 4C\	.	12ee\L	.	.
.	.	12ffn\	.	.
.	.	12aa\J	.	.
!	!	!	!	!LO:HP:t=dimin
4r	.	12gg\L	.	>
.	.	12dd\	.	.
.	.	12gg\J	.	.
=101	=101	=101	=101	=101
!	!	!LO:TX:b:t=poco rall	!	!
2.r	.	12a\L	.	.
.	.	12b-\	.	.
.	.	12ff\J	.	.
.	.	12ee\L	.	.
.	.	12g\	.	.
.	.	12dd\J	.	>
.	.	12e/L	.	.
.	.	12cc/	.	.
.	.	12b-/J)	.	]]
=102	=102	=102	=102	=102
!	!	!LO:TX:a:t=à tempo	!	!LO:DY:rj
4C 4FF/	.	(8.aL 8.f 8.A/	.	p
.	.	16b-Jk 16B-/)	.	.
4D-X 4FF/	.	2b- 2f 2B-/	.	.
!LO:TX:a:t=V.S.	!	!	!	!
4D- 4FF/	.	.	.	.
!!LO:PB:g=original
=103	=103	=103	=103	=103
4Dn 4FF/	.	(8.bnL 8.f 8.Bn/	.	.
.	.	16ffJk 16f/)	.	.
4D 4FF/	.	2ff 2b 2f\	.	.
4G 4FF/	.	.	.	.
=104	=104	=104	=104	=104
4F 4FF/	.	(8.eeL 8.b-X 8.e\	.	.
.	.	16ffJk 16f\	.	<
4e 4B- 4G\	.	4ff#X 4b- 4f#X\	.	.
4d 4B- 4F\	.	4gg 4b- 4g\)	.	[[
=105	=105	=105	=105	=105
4c 4B- 4E\	.	(8.aaL 8.cc 8.a\	.	.
.	.	16gg\Jk	.	>
4r	.	2b- 2g/)	.	]]
4C 4FF/	.	.	.	.
=106	=106	=106	=106	=106
4C 4FF/	.	(8.bnL 8.g#X 8.Bn/	.	.
.	.	16ccJk 16a 16c/)	.	.
4F 4FF/	.	2cc 2a 2c/	.	.
4D 4FF/	.	.	.	.
=107	=107	=107	=107	=107
4C 4FF/	.	(8.eeL 8.b-X 8.e\	.	.
.	.	16bb-Jk 16b-\)	.	.
4G 4FF/	.	2bb- 2ee 2b-\	.	.
4C 4FF/	.	.	.	.
!!LO:LB:g=original
=108	=108	=108	=108	=108
4C 4FF/	.	(8.gg#XL 8.ff 8.g#X\	.	<
.	.	16aaJk 16a\	.	.
4E 4FF/	.	4bb- 4ggn 4b-\	.	.
4D 4FF/	.	4bbn 4ff 4bn\)	.	[
=109	=109	=109	=109	=109
4C 4FF/	.	(8.dddL 8.aa 8.dd\	.	>
.	.	16cccJk 16cc\	.	.
4F 4FF/	.	2ff 2a 2f\)	.	]]
4E 4EE/	.	.	.	.
=110	=110	=110	=110	=110
4D 4DD/	.	(8.aaL 8.ff 8.a\	.	<
.	.	16fffJk 16ff\)	.	.
4d 4A 4F\	.	2fff 2ff\	.	[[
4D 4DD/	.	.	.	.
=111	=111	=111	=111	=111
4BB- 4BBB-/	.	(8.fffL 8.ff\	.	.
.	.	16eeeJk 16ee\	.	.
4e 4d 4G\	.	2gg 2g\)	.	.
4e 4d 4G\	.	.	.	.
=112	=112	=112	=112	=112
4AA 4AAA/	.	(8.ggL 8.g\	.	.
.	.	16bb-Jk 16b-\)	.	.
4e 4c#X 4G\	.	(4.bb- 4.b-\	.	.
4e 4c# 4G\	.	.	.	.
.	.	8aa 8a\)	.	.
!!LO:LB:g=original
=113	=113	=113	=113	=113
4D 4DD/	.	(8ggL 8g\	.	.
.	.	8eeJ 8e\	.	<
4d 4A 4F\	.	4ff 4f\	.	.
4r	.	4gg 4g\)	.	[
=114	=114	=114	=114	=114
4D 4DD/	.	(8.aaL 8.ff 8.a\	.	mf
.	.	16bbnJk 16bn\)	.	.
4f 4Bn 4A\	.	(4.bb 4.ff 4.b\	.	.
4r	.	.	.	.
.	.	8aa 8a\)	.	.
=115	=115	=115	=115	=115
4E 4EE/	.	8aa:L 8ee: 8cc: 8a:\	.	.
.	.	16r	.	.
.	.	16ccc'\Jk	.	.
4e 4c 4A\	.	(12ccc\L	.	.
!	!	!	!	!LO:HP:t=crescendo
.	.	12ddd\	.	<
.	.	12ccc\J	.	.
4r	.	8bbn\L	.	.
.	.	8aa\J)	.	.
=116	=116	=116	=116	=116
*^	*	*	*	*
4r	2.F\	.	(8gg#X\L	.	.
.	.	.	8aa\	.	.
4d 4A/	.	.	8ccc\	.	.
.	.	.	8bbn\	.	.
4d#X 4Bn 4A/	.	.	8aa\	.	.
.	.	.	8bb\J)	.	.
*v	*v	*	*	*	*
=117||	=117||	=117||	=117||	=117||
!	!	!LO:TX:a:t=Tempo Iº	!	!
.	.	(8qee/	.	f
4e 4Bn 4G#X 4E^\	.	(4.eee^\)	.	.
4E 4EE^/	.	.	.	.
.	.	8bbn\L	.	.
4r	.	8aa\	.	.
.	.	8ccc\J	.	.
!!LO:LB:g=original
=118	=118	=118	=118	=118
!LO:TX:t=P:problem:skreślone akordy	!	!	!	!
!LO:TX:b:t=pauze	!	!	!	!
2.r	.	8bbn\L	.	.
.	.	8gg#X\	.	.
.	.	8ff#X\	.	.
.	.	8aa\	.	.
.	.	8gg#\	.	.
.	.	8ee\J)	.	.
=119	=119	=119	=119	=119
4e 4c 4Gn 4E\	.	(4.ggn^\	.	.
4E 4EE/	.	.	.	.
.	.	8ee\L	.	.
4r	.	8dd\	.	.
.	.	8ffn\J	.	.
=120	=120	=120	=120	=120
!LO:TX:t=P:problem:skreślone akordy	!	!	!	!
2.r	.	8ee\L	.	.
.	.	8cc\	.	.
.	.	8b-\	.	.
.	.	8dd\	.	.
.	.	8cc\	.	.
.	.	8g\J)	.	.
=121	=121	=121	=121	=121
*ped	*	*	*	*
4e 4Bn 4G#X 4E\	.	(4.bn/	.	.
4E 4EE/	.	.	.	.
.	.	8f#X/L	.	.
*Xped	*	*	*	*
!	!	!	!	!LO:HP:t=dimin
4r	.	8g#X/	.	>
.	.	8e/J	.	.
=122	=122	=122	=122	=122
2.r	.	8bn/L	.	.
.	.	8f#X/	.	.
.	.	8g#X/	.	.
.	.	8e/	.	.
.	.	8b/	.	.
.	.	8f#/J	.	.
=123	=123	=123	=123	=123
!	!	!	!	!LO:DY:rj
2.d 2.G#X 2.E\	.	8g#X/L	.	p
.	.	8e/	.	.
.	.	8bn/	.	.
.	.	8f#X/	.	.
.	.	8g#/	.	.
.	.	8e/J	.	.
!!LO:LB:g=original
=124	=124	=124	=124	=124
!	!	!LO:TX:a:t=rallent.	!	!LO:HP:t=molto crescendo.
4E 4EE^/	.	8f#X/L	.	<
.	.	8g#X/	.	.
4D 4DD^/	.	8a/	.	.
.	.	8bn/	.	.
4BBn 4BBBn^/	.	8cc#X/	.	.
.	.	8dd/J)	.	.
=125||	=125||	=125||	=125||	=125||
*k[bnf#c#g#]	*	*k[bnf#c#g#]	*	*
!	!	!LO:TX:a:t=à tempo	!	!LO:DY:rj
.	.	(8qe/	.	fp
4AA 4AAA/	.	(4.ee^\)	.	.
4c# 4A 4E\	.	.	.	.
.	.	8cc#\L	.	.
4d 4G# 4E\	.	8b\	.	.
.	.	8dd\J	.	.
=126	=126	=126	=126	=126
4AA/	.	8cc#/L	.	.
.	.	8a/	.	.
4d 4E\	.	8f#/	.	.
.	.	8b/	.	.
4B 4E\	.	8d/	.	.
.	.	8g#/J)	.	.
=127	=127	=127	=127	=127
.	.	(16qqf#/LL	.	.
.	.	16qqg#/JJ	.	.
4AA/	.	(8f#/L)	.	.
.	.	8e/	.	.
4c# 4E\	.	8d#X/	.	.
.	.	8e/	.	.
4r	.	8a/	.	<
.	.	8b/J	.	.
=128	=128	=128	=128	=128
4r	.	8cc#\L	.	.
.	.	8dd\	.	.
4r	.	8dd#X\)	.	[
.	.	8ee\J	.	.
8e 8A^^\	.	8aa: 8cc#: 8a^^:\	.	.
8r	.	8r	.	.
!!LO:PB:g=original
=129	=129	=129	=129	=129
4E 4EE/	.	8gg#\L	.	f
.	.	16r	.	.
.	.	(16aa\Jk	.	.
2f# 2d 2G#^^\	.	2ff# 2dd 2g#^^\)	.	.
=130	=130	=130	=130	=130
4EE 4EEE/	.	8ee\L	.	.
.	.	16r	.	.
.	.	(16ff#\Jk	.	.
2c# 2A 2E^^\	.	2cc# 2a 2e^^/)	.	.
=131	=131	=131	=131	=131
4E 4EE/	.	(8f#/L	.	p
.	.	8g#/J)	.	.
.	.	(16qqa/LL	.	.
.	.	16qqb/JJ	.	.
4d 4A 4F#\	.	(8a^/L)	.	.
.	.	8g#/	.	.
!LO:TX:t=P:problem:nadpisana pauza 4r	!	!	!	!
4E\	.	8a/	.	.
.	.	8cc#/J)	.	.
=132	=132	=132	=132	=132
4d 4A#X 4F##X\	.	8.a#X/L	.	.
.	.	(16b/Jk	.	.
4d 4B 4G#\	.	4.e/)	.	.
!LO:TX:t=P:problem:nadpisana pauza 4r	!	!	!	!
4E\	.	.	.	.
*	*	*Xtuplet	*	*
.	.	(<48f#/LLL	.	<
.	.	48g#/	.	.
.	.	48an/	.	.
.	.	48b/	.	.
.	.	48cc#/	.	.
.	.	48dd/JJJ	.	[[
=133	=133	=133	=133	=133
4AA 4AAA/	.	4.ee^\)	.	fp
4c# 4A 4E\	.	.	.	.
.	.	(8cc#\L	.	.
4d 4G# 4E\	.	8b\	.	.
.	.	8dd\J	.	.
!!LO:LB:g=original
=134	=134	=134	=134	=134
!	!	!LO:TX:b:t=P:problem:koniec łuku na dole	!	!
4AA/	.	8cc#/L	.	.
.	.	8a/	.	.
4d 4E\	.	8f#/	.	.
.	.	8b/	.	.
4B 4E\	.	8d/	.	.
.	.	8g#/J)	.	.
=135	=135	=135	=135	=135
.	.	(16qqf#/LL	.	.
.	.	16qqg#/JJ	.	.
4AA/	.	(8f#/L)	.	.
.	.	8e/	.	.
4c# 4E\	.	8a/	.	.
.	.	8b/	.	.
4r	.	8cc#/	.	<
.	.	8dd/J	.	.
=136	=136	=136	=136	=136
4r	.	8dd#X\L	.	.
.	.	8ee\	.	.
4r	.	8aa\	.	[
.	.	8bb\J)	.	.
8a 8e 8A^^\	.	8ccc# 8ee^^\	.	.
8r	.	8r	.	.
=137	=137	=137	=137	=137
!	!	!	!	!LO:DY:rj
4F# 4FF#/	.	8ddd#X\L	.	f
.	.	16r	.	.
.	.	(16eee\Jk	.	.
2a 2e 2c#^^\	.	2ccc# 2aa 2ee^^\)	.	.
=138	=138	=138	=138	=138
4BB 4BBB/	.	8bb\L	.	.
.	.	16r	.	.
.	.	(16ccc#\Jk	.	.
2e: 2G#: 2BB^^:\	.	2gg# 2ee 2b^^\)	.	.
=139	=139	=139	=139	=139
4BB 4BBB/	.	(8.bb\L	.	.
!	!	!LO:TX:b:i:t=sost	!	!
.	.	16aa\Jk	.	.
4e 4c# 4A\	.	8ccc#\L	.	.
.	.	8cc#\	.	.
4d#X 4A 4F#\	.	8dd#X\	.	.
.	.	8aa\J)	.	.
!!LO:LB:g=original
=140	=140	=140	=140	=140
.	.	(8qgg#/	.	.
4E 4EE/	.	4ee\)	.	.
8g#: 8B: 8E^^:\	.	8eee 8bb 8ee^^\	.	.
8r	.	8r	.	.
4r	.	(8ee\L	.	p
.	.	8ee#X\J	.	.
=141||	=141||	=141||	=141||	=141||
!	!	!LO:TX:a:t=Poco più tranquillo	!	!
4BB/	.	8ff#\L	.	.
.	.	8aa\J)	.	.
4d 4G# 4E\	.	(4.gg#^\	.	.
4EE/	.	.	.	.
.	.	8bb\)	.	.
=142	=142	=142	=142	=142
4C#/	.	(8.ee\L	.	.
.	.	16aa\Jk)	.	.
4c# 4A 4E\	.	4aa\	.	.
4AA/	.	4ccc# 4cc#\	.	.
=143	=143	=143	=143	=143
!	!	!	!	!LO:HP:t=cresc
4BB/	.	8ccc#L 8cc#\	.	<
.	.	8eeeJ 8ee\	.	.
4d 4A 4F#\	.	4.ddd 4.dd\	.	.
4d 4G# 4E\	.	.	.	.
.	.	8fff# 8ff#\	.	.
=144	=144	=144	=144	=144
4AA 4AAA/	.	8.aaaL 8.aa\	.	.
.	.	16ggg#Jk 16gg#\	.	.
4c# 4E 4AA\	.	4eee 4ee\	.	.
4r	.	4eee 4ee\	.	.
!!LO:LB:g=original
=145	=145	=145	=145	=145
8r	.	4fff# 4ddd 4ff#^^\	.	f
8GG#L 8GGG#/	.	.	.	.
8AA 8AAA/	.	2eee 2ccc# 2ee^^\	.	sfz
8BB 8BBB/	.	.	.	.
8C# 8CC#/	.	.	.	.
8DJ 8DD/	.	.	.	.
=146	=146	=146	=146	=146
!	!	!LO:TX:b:i:t=poco sost.	!	!
4E 4EE/	.	8dddL 8bb 8dd\	.	.
.	.	8eeeJ 8ccc# 8ee\	.	.
4r	.	4fff# 4ddd 4ff#\	.	.
4r	.	4ggg# 4eee 4gg#\	.	.
=147	=147	=147	=147	=147
4C# 4CC#/	.	8fff#L 8ff#\	.	.
.	.	8eee 8ee\	.	.
4c# 4A\	.	8ddd 8dd\	.	.
.	.	8ccc# 8cc#\	.	.
4D#X 4DD#X/	.	8bb 8b\	.	.
.	.	8aaJ 8a\	.	.
=148	=148	=148	=148	=148
4E 4EE/	.	8gg#L 8g#\	.	.
.	.	8aaJ 8a\	.	.
4e 4B 4G#\	.	4bb 4b\	.	.
4r	.	(8ee\L	.	p
.	.	8ee#X\J	.	.
=149	=149	=149	=149	=149
4BB/	.	8ff#\L	.	.
.	.	8aa\J)	.	.
4d 4G# 4E\	.	(4.gg#^\	.	.
4EE/	.	.	.	.
.	.	8bb\)	.	.
!!LO:LB:g=original
=150	=150	=150	=150	=150
4C#/	.	(8.ee\L	.	.
.	.	16aa\Jk)	.	.
4c# 4A 4E\	.	4aa\	.	.
4AA/	.	4ccc# 4cc#\	.	.
=151	=151	=151	=151	=151
!	!	!	!	!LO:HP:t=crescendo
4BB/	.	8ccc#L 8cc#\	.	<
.	.	8eeeJ 8ee\	.	.
4d 4A 4F#\	.	4.ddd 4.dd\	.	.
4d 4G# 4E\	.	.	.	.
.	.	8fff# 8ff#\	.	.
=152	=152	=152	=152	=152
4AA 4AAA/	.	8.aaaL 8.aa\	.	.
.	.	16ggg#Jk 16gg#\	.	.
4c# 4E 4AA\	.	4eee 4ee\	.	.
4r	.	8eeeL 8ee\	.	.
.	.	8fffnJ 8ffn\	.	.
=153	=153	=153	=153	=153
*	*	*8va	*	*
!	!	!	!	!LO:DY:rj
4GGn 4GGGn/	.	4gggn 4eee 4ggn\	.	f
8r	.	2fffn 2ddd 2ffn\	.	.
8GGL 8GGG/	.	.	.	.
8AA 8AAA/	.	.	.	.
8BBJ 8BBB/	.	.	.	.
=154	=154	=154	=154	=154
4Cn 4CCn/	.	8eeeL 8cccn 8ee\	.	.
.	.	8fffnJ 8ddd 8ffn\	.	.
4r	.	4gggn 4eee 4ggn\	.	.
!LO:TX:a:t=V.S.	!	!	!	!
4FF#X 4FFF#X^>/	.	4aaa 4ddd 4aa^\	.	.
!!LO:PB:g=original
=155	=155	=155	=155	=155
4GGn 4GGGn/	.	8gggnL 8ggn\	.	.
.	.	8aaa 8aa\	.	.
4B 4Fn 4Dn\	.	8bbb 8bb\	.	.
.	.	8ccccn 8cccn\	.	.
4GG 4GGG/	.	8dddd 8ddd\	.	.
.	.	8eeeeJ 8eee\	.	.
=156	=156	=156	=156	=156
4Cn 4CCn/	.	8.ddddL 8.ddd\	.	.
.	.	16ccccnJk 16cccn\	.	.
!LO:SIC:v:n=2:4Gn	!	!	!	!
4e 4G# 4C^^\	.	4cccc 4ccc^^\	.	.
*	*	*X8va	*	*
4r	.	8r	.	.
.	.	8ccn\	.	p
=157||	=157||	=157||	=157||	=157||
*k[fncngnb-e-a-]	*	*k[fncngnb-e-a-]	*	*
!	!	!LO:TX:a:t=grasiozo	!	!
!LO:TX:a:t=P:problem:kasownik fn oktawę wyżej	!	!LO:TX:a:t=P:problem:kasownik fn oktawę wyżej	!	!
4C/	.	(4.ccc\	.	.
4f 4c 4A-\	.	.	.	.
.	.	8aa-\L	.	.
4C/	.	8gg\	.	.
.	.	8bb-\J	.	.
=158	=158	=158	=158	=158
4f 4Bn 4G\	.	8aa-\L	.	.
.	.	8ff\	.	.
4C/	.	8dd\	.	.
.	.	8gg\	.	.
4e- 4c 4G\	.	8cc\	.	.
.	.	8ee-\J)	.	.
!!LO:LB:g=original
=159	=159	=159	=159	=159
.	.	(16qqdd/LL	.	.
.	.	16qqee-/JJ	.	.
4C/	.	8dd\L)	.	.
.	.	16r	.	.
.	.	(16cc\Jk	.	.
4f 4Bn 4G\	.	16bn\LL	.	.
.	.	16cc\	.	.
.	.	16dd\	.	.
!	!	!LO:TX:b:t=legg.	!	!
.	.	16ee-\JJ	.	.
4r	.	16ff\LL	.	.
.	.	16gg\	.	.
.	.	16aan\	.	.
.	.	16bbn\JJ	.	<
=160	=160	=160	=160	=160
4C/	.	16ccc\LL	.	.
.	.	16ddd\	.	.
.	.	16eee-\	.	.
.	.	16fff\JJ	.	.
4e- 4c 4G\	.	16ggg\LL	.	[
.	.	16aaa-\	.	>
.	.	16ggg\	.	.
.	.	16aaa-\JJ	.	.
4r	.	8ggg\)	.	]
.	.	8r	.	.
=161||	=161||	=161||	=161||	=161||
*k[b-e-a-d-g-]	*	*k[b-e-a-d-g-]	*	*
4AA-/	.	(4.aa-\	.	p
4e- 4c 4G-\	.	.	.	.
.	.	8ff\L	.	.
4r	.	8ee-\	.	.
.	.	8gg-\J	.	.
=162	=162	=162	=162	=162
4D- 4DD-/	.	8ff\L	.	.
.	.	8dd-\	.	.
4B- 4G-\	.	8b-\	.	.
.	.	8ee-\	.	.
4c 4A- 4G-\	.	8g-\	.	.
.	.	8cc\J)	.	.
!!LO:LB:g=original
=163	=163	=163	=163	=163
.	.	(16qqb-/LL	3	.
.	.	16qqcc/JJ	.	.
4D-\	.	8b-/L)	.	.
.	.	16r	.	.
.	.	16a-/Jk	.	.
4f 4A-\	.	(16gn/LL	.	.
.	.	16a-/	.	.
.	.	16b-/	.	.
.	.	16cc/JJ	1	.
*clefG2	*	*	*	*
!LO:TX:t=P:problem:pauza 4r dopisana ołówkiem	!	!	!	!
4a- 4d-/	.	16dd-\LL	.	.
.	.	16ee-\	.	.
.	.	16ff\	.	.
.	.	16gg-X\JJ	.	.
=164	=164	=164	=164	=164
!LO:TX:t=P:problem:pauza 4r dopisana ołówkiem	!	!	!	!
4dd- 4f/	.	16aa-\LL	.	.
.	.	16bb-\	.	.
.	.	16ccc\	.	.
.	.	16ddd-\JJ	.	.
*	*	*8va	*	*
4r	.	16eee-\LL	.	.
.	.	16fff\	1	.
.	.	16ggg-\	.	.
.	.	16gggn\JJ	.	.
4r	.	16aaa-\LL	4	.
.	.	16ggg\	1	.
.	.	16aaa-\	3	.
.	.	16ggg\JJ	2	.
*clefF4	*	*	*	*
=165	=165	=165	=165	=165
!	!	!LO:TX:a:t=Tempo Iº	!	!LO:HP:t=crescendo
4G-\	.	16aaa-\LL	.	<
.	.	16gggn\	.	.
.	.	16aaa-\	.	.
.	.	16ggg\JJ	.	.
4e- 4c 4A-^\	.	16aaa-\LL	.	.
.	.	16ggg\	.	.
.	.	16aaa-\	.	.
.	.	16ggg\JJ	.	.
4r	.	16aaa-\LL	.	.
.	.	16ggg\	.	.
.	.	16aaa-\	.	.
.	.	16ggg\JJ	.	.
=166	=166	=166	=166	=166
4F\	.	16aaa-\LL	.	.
.	.	16gggn\	.	.
.	.	16aaa-\	.	.
.	.	16ggg\JJ	.	.
4f 4c 4A-^\	.	16aaa-\LL	.	.
.	.	16ggg\	.	.
.	.	16aaa-\	.	.
.	.	16ggg\JJ	.	.
4r	.	16aaa-\LL	.	.
.	.	16ggg\	.	.
.	.	16aaa-\	.	.
.	.	16ggg\JJ	.	.
!!LO:LB:g=original
=167	=167	=167	=167	=167
4E-\	.	16aaa-\LL	.	.
.	.	16gggn\	.	.
.	.	16aaa-\	.	.
.	.	16ggg\JJ	.	.
4g- 4c 4A-^\	.	16aaa-\LL	.	.
.	.	16ggg\	.	.
.	.	16aaa-\	.	.
.	.	16ggg\JJ	.	.
4r	.	16aaa-\LL	.	.
.	.	16ggg\	.	.
.	.	16aaa-\	.	.
.	.	16ggg\JJ	.	.
=168	=168	=168	=168	=168
4D-\	.	16aaa-\LL	.	.
.	.	16gggn\	.	.
.	.	16aaa-\	.	.
.	.	16ggg\JJ	.	.
4f 4d- 4A-^\	.	16aaa-\LL	.	.
.	.	16ggg\	.	.
.	.	16aaa-\	.	.
.	.	16ggg\JJ	.	.
4r	.	16aaa-\LL	.	.
.	.	16ggg\	.	.
.	.	16aaa-\	.	.
.	.	16ggg\JJ	.	.
=169||	=169||	=169||	=169||	=169||
*k[bnenandngnf#c#g#]	*	*k[bnenandngnf#c#g#]	*	*
4BB/	.	16ggg#\LL	.	f
.	.	16fff##X\	.	.
.	.	16ggg#\	.	.
.	.	16aaa\JJ	1	.
!	!	!	!	!LO:DY:b
4e 4d 4G#\	.	16bbb\LL	.	sfz
.	.	16cccc#\	.	.
.	.	16dddd\	1	.
.	.	16eeee\JJ	2	.
4r	.	16gggg#\LL	4	.
.	.	16ffff#\	.	.
.	.	16dddd\	.	.
.	.	16bbb\JJ	.	.
!!LO:LB:g=original
=170	=170	=170	=170	=170
2.r	.	16eeee\LL	.	.
.	.	16dddd\	.	.
.	.	16bbb\	.	.
.	.	16ggg#\JJ	.	.
.	.	16cccc#\LL	.	.
.	.	16bbb\	.	.
.	.	16ggg#\	.	.
.	.	16eee\JJ	.	.
.	.	16ggg#\LL	.	.
.	.	16fff#\	.	.
.	.	16ddd\	.	.
.	.	16bb\JJ	.	.
*	*	*X8va	*	*
=171	=171	=171	=171	=171
2.E 2.EE^>/	.	16eee\LL	.	.
.	.	16ddd\	.	.
.	.	16bb\	.	.
.	.	16gg#\JJ	.	.
.	.	16ccc#\LL	3	.
.	.	16bb\	.	.
.	.	16ddd\	.	.
.	.	16ccc#\JJ	.	.
.	.	16bb\LL	.	.
.	.	16aa\	.	.
.	.	16gg#\	.	.
.	.	16ff#\JJ	.	.
=172	=172	=172	=172	=172
!	!	!	!	!LO:DY:b
4g# 4d 4B 4E\	.	16ee\LL	.	sfz
.	.	16ff#\	.	.
.	.	16ee\	.	.
.	.	16dd\JJ	.	.
4r	.	16cc#/LL	.	.
.	.	16b/	.	.
.	.	16a/	.	.
.	.	16g#/JJ	.	.
4r	.	16f#/LL	.	.
.	.	16e/	.	.
.	.	16d/	.	.
.	.	16c#/JJ	.	.
=173	=173	=173	=173	=173
2.rGG	.	16B</LL	.	.
.	.	16A</	.	.
.	.	16G#</	.	.
.	.	16F#</JJ	.	.
.	.	16E</LL	.	.
.	.	16D#X</	.	.
.	.	16E</	.	.
.	.	16F#</JJ	.	.
.	.	16G#</LL	.	.
.	.	16A</	.	.
.	.	16B</	.	.
.	.	16c#</JJ	.	.
!!LO:PB:g=original
=174	=174	=174	=174	=174
!	!	!LO:TX:b:t=P:problem:koniec łuku na dole	!	!
2.r	.	16dn/LL	.	.
.	.	16c#/	.	.
.	.	16B/	.	<
.	.	16c#/JJ	.	.
.	.	16d/LL	.	.
.	.	16e/	.	.
.	.	16f#/	.	.
.	.	16g#/JJ	.	.
.	.	16a\LL	.	.
.	.	16b\	.	.
.	.	16cc#\	.	.
.	.	16dd\JJ)	.	[[
=175	=175	=175	=175	=175
4AA 4AAA/	.	4.ee^\	.	ff
4c# 4A 4E\	.	.	.	.
.	.	(8cc#\L	.	.
4d 4G# 4E\	.	8b\	.	.
.	.	8dd\J	.	.
=176	=176	=176	=176	=176
4AA/	.	8cc#/L	.	.
.	.	8a/	.	.
4d 4E\	.	8f#/	.	.
.	.	8b/	.	.
4B 4E\	.	8d/	.	.
.	.	8g#/J)	.	.
=177	=177	=177	=177	=177
.	.	(16qqf#/LL	.	.
.	.	16qqg#/JJ	.	.
4AA/	.	(8f#/L)	.	.
.	.	8e/	.	.
4c# 4E\	.	8d#X/	.	.
.	.	8e/	.	.
4r	.	8a/	.	<
.	.	8b/J	.	.
=178	=178	=178	=178	=178
4r	.	8cc#\L	.	.
.	.	8dd\	.	.
4r	.	8dd#X\	.	.
.	.	8ee\J)	.	[
8e 8A\	.	8aa: 8cc#: 8a:\	.	.
8r	.	8r	.	.
!!LO:LB:g=original
=179	=179	=179	=179	=179
4E 4EE/	.	8gg#\L	.	.
.	.	16r	.	.
.	.	(16aa\Jk	.	.
2f# 2d 2G#^^\	.	2ff# 2dd 2g#^^\)	.	.
=180	=180	=180	=180	=180
4EE 4EEE/	.	8ee\L	.	.
.	.	16r	.	.
.	.	(16ff#\Jk	.	.
2c# 2A 2E^^\	.	2cc# 2a 2e^^/)	.	.
=181	=181	=181	=181	=181
4E 4EE/	.	(8f#/L	.	p
.	.	8g#/J)	.	.
.	.	(16qqa/LL	.	.
.	.	16qqb/JJ	.	.
4d 4A 4F#\	.	(8a/L)	.	.
.	.	8g#/	.	.
!LO:TX:t=P:problem:dopisana pauza 4r	!	!	!	!
4E\	.	8a/	.	.
.	.	8cc#/J	.	.
=182	=182	=182	=182	=182
4d 4A#X 4F##X\	.	8.a#X/L	.	.
.	.	16b/Jk	.	.
4d 4B 4G#\	.	4.e/)	.	.
!LO:TX:t=P:problem:dopisana pauza 4r	!	!	!	!
4E\	.	.	.	.
*	*	*tuplet	*	*
.	.	(<48f#/LLL	.	<
.	.	48g#/	.	.
.	.	48an/	.	.
.	.	48b/	.	.
.	.	48cc#/	.	.
.	.	48dd/JJJ	.	[[
=183	=183	=183	=183	=183
4AA 4AAA/	.	4.ee\)	.	f
4c# 4A 4E\	.	.	.	.
.	.	(8cc#\L	.	.
4d 4G# 4E\	.	8b\	.	.
.	.	8dd\J	.	.
!!LO:LB:g=original
=184	=184	=184	=184	=184
!	!	!LO:TX:b:t=P:problem:koniec łuku na dole	!	!
4AA/	.	8cc#/L	.	.
.	.	8a/	.	.
4d 4E\	.	8f#/	.	.
.	.	8b/	.	.
4B 4E\	.	8d/	.	.
.	.	8g#/J)	.	.
=185	=185	=185	=185	=185
.	.	(16qqf#/LL	.	.
.	.	16qqg#/JJ	.	.
4AA/	.	(8f#/L)	.	p
.	.	8e/	.	.
4r	.	8a/	.	.
!	!	!	!	!LO:HP:t=crescendo
.	.	8b/	.	<
4e 4A 4Gn\	.	8cc#/	.	.
.	.	8a/J	.	.
=186	=186	=186	=186	=186
4d 4A 4F#\	.	8dd\L	.	.
.	.	8ee\	.	.
4r	.	8ff#\	.	.
.	.	8dd\	.	.
4BB/	.	8ff#\	.	.
.	.	8aa\J	.	.
=187	=187	=187	=187	=187
4C#/	.	8gg#'\L)	.	.
.	.	(8g#\	.	.
4r	.	8cc#\	.	.
.	.	8dd#X\	.	.
4g# 4c# 4B\	.	8ee#X\	.	.
.	.	8cc#\J	.	.
=188	=188	=188	=188	=188
4f# 4c# 4A\	.	8ff#\L	.	.
.	.	8gg#\	.	.
4r	.	8aa\	.	.
.	.	8ff#\	.	.
4r	.	8aa\	.	.
.	.	8ccc#\J)	.	.
=189	=189	=189	=189	=189
4D\	.	8ddd|\L	.	.
.	.	(8dd\	.	.
4r	.	8ff#\	.	.
.	.	8ggn\	.	.
4a 4d 4cn\	.	8aa\	.	.
.	.	8ff#\J	.	.
!!LO:LB:g=original
=190	=190	=190	=190	=190
4gn 4d 4B\	.	8ggn\L	.	.
.	.	8aa\	.	.
4r	.	8bb\	.	.
.	.	8gg\	.	.
4Gn 4GGn^^/	.	8bb\	.	.
.	.	8ddd\J)	.	.
=191	=191	=191	=191	=191
4Cn 4CCn^^/	.	4.gggn^\	.	f
4e 4cn 4Gn\	.	.	.	.
.	.	(8eee\L	.	.
4fn 4B 4G\	.	8ddd\	.	.
.	.	8fffn\J	.	.
=192	=192	=192	=192	=192
4Cn/	.	8eee\L	.	.
.	.	8cccn\	.	.
4fn 4Gn\	.	8aa\	.	.
.	.	8ddd\	.	.
4r	.	8ffn\)	.	.
.	.	8bb\J	.	.
=193	=193	=193	=193	=193
.	.	(16qqaa/LL	.	.
.	.	16qqbb/JJ	.	.
4Cn 4CCn/	.	(8aa\L)	.	.
.	.	8ggn\	.	.
4r	.	8ff#X\	.	.
.	.	8gg\	.	.
4e 4cn 4Gn 4E\	.	8cccn\	.	.
.	.	8ddd\J	.	.
=194	=194	=194	=194	=194
*	*	*8va	*	*
4e 4cn 4Gn 4E\	.	8eee\L	.	.
.	.	8fffn\	.	.
4r	.	8fff#X\	.	.
.	.	8gggn\	.	.
4r	.	8ccccn\	.	.
.	.	8dddd\J)	.	.
!!LO:LB:g=original
=195	=195	=195	=195	=195
4BB 4BBB/	.	4.eeee^\	.	.
4e 4d 4G#X^\	.	.	.	.
.	.	(8cccc#\L	.	.
4r	.	8bbb\	.	.
.	.	8dddd\J	.	.
=196	=196	=196	=196	=196
4E\	.	8cccc#\L	.	.
.	.	8bbb\	.	.
4g# 4d 4B^<\	.	8aaa\	.	.
.	.	8ggg#\	.	.
4r	.	8fff#\	.	.
.	.	8eee\J	.	.
=197	=197	=197	=197	=197
4C#/	.	8ddd#X\L	.	.
.	.	8eee\	.	.
4c# 4A^\	.	8aaa\	.	.
.	.	8eee\	.	.
4r	.	8aaa\	.	.
.	.	8eee#X\J	.	.
=198	=198	=198	=198	=198
4D\	.	8fff#\L	.	.
.	.	8cccc#\	.	.
4c# 4A^\	.	8bbb\	.	.
.	.	8aaa\	.	.
4r	.	8ggg#\	.	.
.	.	8aaa\J	.	.
=199	=199	=199	=199	=199
4E\	.	8fff#\L	.	.
.	.	8eee\	.	.
4c# 4A^\	.	8aaa\	.	.
.	.	8eee\	.	.
4r	.	8aaa\	.	.
.	.	8eee#X\J	.	.
=200	=200	=200	=200	=200
4D#X\	.	8fff#\L	.	.
.	.	8cccc#\	.	.
4c# 4A^\	.	8bbb\	.	.
.	.	8aaa\	.	.
4r	.	8ggg#\	.	.
.	.	8aaa\J	.	.
!!LO:PB:g=original
=201	=201	=201	=201	=201
*ped	*	*	*	*
4c# 4A 4E\	.	8dddd#X\L	4	.
.	.	8eeee\	.	.
4r	.	8bbb#X\	.	.
.	.	8cccc#\	.	.
4E\	.	8aaa\	1	.
.	.	8ddddn\J	5	.
=202	=202	=202	=202	=202
4a 4e 4c#^\	.	8cccc#\L	4	.
.	.	8aaa\	2	.
4r	.	8bbb\	.	.
.	.	8aaa\	.	.
*Xped	*	*	*	*
4r	.	8eee\	.	.
.	.	8fff#\J	.	.
=203	=203	=203	=203	=203
*ped	*	*	*	*
4E 4EE^>/	.	8ggg#\L	.	.
.	.	8bbb\	.	.
4r	.	8ddd\	.	.
.	.	8eee\	.	.
4E\	.	8fff#\	.	.
.	.	8aaa\J	.	.
*	*	*X8va	*	*
=204	=204	=204	=204	=204
4g# 4d 4B^\	.	8ggg#\L	.	.
.	.	8fff#\	.	.
4r	.	8eee\	.	.
.	.	8ddd\	.	.
*Xped	*	*	*	*
4r	.	8ccc#\	.	.
.	.	8bb\J	.	.
=205	=205	=205	=205	=205
!	!	!	!	!LO:DY:t=sempre f
4E 4AA'/	.	4aa\)	.	f
4A 4E'\	.	4r	.	.
4E 4AA'/	.	(8dd\L	.	.
.	.	8cc#\J	.	.
=206	=206	=206	=206	=206
4E 4AA'/	.	8b\L	.	.
.	.	8cc#\	.	.
4G# 4E'\	.	8dd\	.	.
.	.	8ee\	.	.
4E 4AA'/	.	8ff#\	.	.
.	.	8gg#\J)	.	.
!!LO:LB:g=original
=207	=207	=207	=207	=207
4E 4AA'/	.	(8aa\L	.	.
.	.	8ccc#\J	.	.
4c# 4E'\	.	4aa'\)	.	.
!	!	!LO:TUP:b:problem:klamra łukowa	!	!
4E 4AA'/	.	12aa\L	.	.
.	.	12gg#\	.	.
.	.	12ff#\J	.	.
=208	=208	=208	=208	=208
4E 4AA'/	.	(8gg#\L	.	.
.	.	8bb\J	.	.
4B 4E'\	.	4dd'\)	.	.
4E 4AA'/	.	(12dd\L	.	.
.	.	12ee\	.	.
.	.	12ff#\J	.	.
=209	=209	=209	=209	=209
4E 4AA'/	.	2ee^\)	.	.
4A 4E'\	.	.	.	.
4E 4AA'/	.	(8dd\L	.	.
.	.	8cc#\J	.	.
=210	=210	=210	=210	=210
4E 4AA'/	.	8b\L	.	.
.	.	8cc#\	.	.
4G# 4E'\	.	8dd\	.	.
.	.	8ee\	.	.
4E 4AA'/	.	8ff#\)	.	.
.	.	8gg#\J	.	.
=211	=211	=211	=211	=211
4E 4AA'/	.	(8aa\L	.	.
.	.	8eee\J	.	.
4c# 4E'\	.	4aa'\)	.	.
4r	.	(12aa\L	.	.
.	.	12gg#\	.	.
.	.	12ff#\J	.	.
=212	=212	=212	=212	=212
4E 4EE'/	.	8gg#\L	.	.
.	.	8ddd\J	.	.
4r	.	4gg#'\)	.	.
4r	.	(12gg#\L	.	.
.	.	12ff#\	.	.
.	.	12ee\J	.	.
!!LO:LB:g=original
=213	=213	=213	=213	=213
4g#: 4d: 4B: 4E:\	.	12ff#\L	.	.
.	.	12gg#\	.	.
.	.	12aa\J	.	.
4r	.	12bb\L	.	.
.	.	12ccc#\	.	.
.	.	12ddd\J	.	.
4r	.	12eee\L	.	.
.	.	12fff#\	.	.
.	.	12ggg#\J)	.	.
=214	=214	=214	=214	=214
*ped	*	*8va	*	*
*	*	*Xtuplet	*	*
4AA/	.	(12aaa\L	1	.
.	.	12bbb\	3	.
.	.	12aaa\J	2	.
4r	.	12eeee\L	.	.
.	.	12aaa\	2	.
.	.	12bbb\J	3	.
4r	.	12aaa\L	.	.
.	.	12eee\	1	.
.	.	12fff#\J	2	.
*clefG2	*	*	*	*
=215	=215	=215	=215	=215
4cc# 4e 4A/	.	12eee\L	1	.
.	.	12fff#\	3	.
.	.	12eee\J	2	.
4r	.	12aaa\L	5	.
.	.	12eee\	.	.
.	.	12fff#\J	.	.
4r	.	12eee\L	.	.
*	*	*X8va	*	*
.	.	12aa\	1	.
.	.	12bb\J	2	.
=216	=216	=216	=216	=216
4a 4c#/	.	12aa\L	1	.
.	.	12bb\	3	.
.	.	12aa\J	2	.
4r	.	12eee\L	.	.
.	.	12aa\	.	.
.	.	12bb\J	.	.
4r	.	12aa\L	.	.
.	.	12ee\	.	.
.	.	12ff#\J	.	.
!!LO:LB:g=original
*clefF4	*	*	*	*
=217	=217	=217	=217	=217
4c# 4E\	.	12ee\L	.	.
.	.	12ff#\	.	.
.	.	12ee\J	.	.
4r	.	12aa\L	.	.
.	.	12ee\	.	.
.	.	12ff#\J	.	.
4r	.	12ee\L	.	.
.	.	12a\	.	.
.	.	12b\J	.	.
=218	=218	=218	=218	=218
4c# 4E 4AA\	.	12a/L	.	.
.	.	12b/	.	.
.	.	12a/J	.	.
4r	.	12f#/L	.	.
.	.	12e/	.	.
.	.	12d/J	.	.
4r	.	12c#/L	.	.
.	.	12B/	.	.
.	.	12A/J	.	.
=219	=219	=219	=219	=219
*	*below	*	*	*
8A 8E\	5 3	12B/L	.	.
.	.	12c#/	.	.
8r	.	.	.	.
.	.	12d/J	.	.
8c# 8A\	3 2	12e/L	.	.
.	.	12f#/	.	.
8r	.	.	.	.
.	.	12g#/J	.	.
8e 8c#\	2 1	12a\L	.	.
.	.	12b\	.	.
8r	.	.	.	.
.	.	12cc#\J	.	.
*clefG2	*	*	*	*
=220	=220	=220	=220	=220
8a 8e/	5 3	12dd\L	.	.
.	.	12ee\	.	.
8r	.	.	.	.
.	.	12ff#\J	.	.
8cc# 8a\	.	12gg#\L	.	.
.	.	12aa\	.	.
8r	.	.	.	.
.	.	12bb\J	.	.
8ee 8cc#\	.	12ccc#\L	.	.
.	.	12ddd\	.	.
8r	.	.	.	.
.	.	12eee\J	.	.
=221	=221	=221	=221	=221
*	*	*8va	*	*
8aa 8ee\	.	12fff#\L	.	.
.	.	12ggg#\	.	.
8r	.	.	.	.
.	.	12aaa\J	.	.
8ccc# 8aa\	.	12bbb\L	.	.
.	.	12cccc#\	.	.
8r	.	.	.	.
.	.	12dddd\J	.	.
8eee 8ccc#\	.	12eeee\L	.	.
.	.	12ffff#\	.	.
8r	.	.	.	.
.	.	12gggg#\J	.	.
!!LO:LB:g=original
=222	=222	=222	=222	=222
!	!	!LO:TX:t=P:problem:brak zakończenia łuku	!	!
8eee 8ccc#\	.	8aaaa\)	.	.
*	*	*X8va	*	*
8r	.	8r	.	.
4r	.	4r	.	.
4r	.	4r	.	.
=223	=223	=223	=223	=223
4cc# 4e 4A/	.	4aaa 4eee 4ccc# 4aa\	.	sfz
4r	.	4r	.	.
4r	.	4r	.	.
*clefF4	*	*	*	*
=224	=224	=224	=224	=224
4AA 4AAA/	.	4a 4e 4c# 4A/	.	sfz
4r	.	4r	.	.
4r	.	4r	.	.
==	==	==	==	==
*-	*-	*-	*-	*-
!!!system-decoration: {(s1,s2)}
!!!RDF**kern: > = above
!!!RDF**kern: < = below
!!!RDF**kern: | = vertical stroke
!!!ENC: Marta Lawrence
!!!END: 2021-05-30
!!!ENC: Andrzej Kubiczek
!!!END: 2021-05-04
